X: 96
T: Sanctorum meritis
N: Derived from Mar2087-Sanctorum_meritis.krn
C: Johannes Martini
%%abc-version 2.0
%%abcx-abcm2ps-target-version 5.9.1 (29 Sep 2008)
%%abc-creator hum2abc beta
%%abcx-conversion-date 2019/02/17 07:19:42
%%abc-edited-by Jesse Rodin
%%abc-edited-by Chris Gage 08-19-2014
%%abcx-initial-encoding-date 2014/10/05/
%%humdrum-veritas 4009209512
%%humdrum-veritas-data 2021423114
%%linebreak <none>
%%barnumbers 0
L: 1/4
M: 2/1
Q: 1/2=120
V: 1 clef=treble
V: 2 clef=treble-8
V: 3 clef=bass
K: C
[V:1] D8- | 
[V:2] A8- | 
[V:3] D,8 | 
[V:1] D8 | 
[V:2] A8 | 
[V:3] F,8 | 
[V:1] E8 | 
[V:2] B8 | 
[V:3] G,8 | 
[V:1] F6ED | 
[V:2] c6BA | 
[V:3] A,6G,F, | 
[V:1] E3FG2A2- | 
[V:2] B3cd2e2- | 
[V:3] G,3A,B,2C2- | 
[V:1] A2^G^FG4 | 
[V:2] e2dcd4 | 
[V:3] C2B,A,B,4 | 
[V:1] A4z4 | 
[V:2] c8 | 
[V:3] A,8 | 
[V:1] c8 | 
[V:2] A4F4 | 
[V:3] z4C4- | 
[V:1] c4d4 | 
[V:2] A4G4 | 
[V:3] C4B,4 | 
[V:1] c4B4 | 
[V:2] C4G4 | 
[V:3] C4D4 | 
[V:1] A4z4 | 
[V:2] A2F2G4 | 
[V:3] C4B,4 | 
[V:1] c4c3B | 
[V:2] F3EC4 | 
[V:3] A,4z4 | 
[V:1] A2G4A2- | 
[V:2] z8 | 
[V:3] C4C3B, | 
[V:1] A2G2E2F2- | 
[V:2] c2d2B2c2- | 
[V:3] A,2B,2G,2A,2- | 
[V:1] F2E4DC | 
[V:2] c2B4AG | 
[V:3] A,2G,4E,2 | 
[V:1] D4E4 | 
[V:2] A3Bc2d2- | 
[V:3] F,4E,3D, | 
[V:1] z4A4 | 
[V:2] d2^c2d4- | 
[V:3] E,4D,3E, | 
[V:1] A2A4B2- | 
[V:2] d2c2A2G2- | 
[V:3] F,3E,F,2G,2- | 
[V:1] B2G4^F2 | 
[V:2] GFG2D4 | 
[V:3] G,2B,2A,4 | 
[V:1] G4A4 | 
[V:2] E4F2D2 | 
[V:3] G,3F,D,2D2- | 
[V:1] G4F4 | 
[V:2] E4D2F2 | 
[V:3] D2C2D4 | 
[V:1] G4A2c2 | 
[V:2] E2C4c2 | 
[V:3] B,2C4A,2 | 
[V:1] B4A4 | 
[V:2] d3ef3e | 
[V:3] G,4F,4 | 
[V:1] c4c3B | 
[V:2] c4c3d | 
[V:3] z2F,2A,3B, | 
[V:1] AGA4G2- | 
[V:2] e4d2e2- | 
[V:3] C4F,2E,2 | 
[V:1] G2F4E2 | 
[V:2] edc4B2 | 
[V:3] F,2A,2G,4 | 
[V:1] F4z4 | 
[V:2] c6A2- | 
[V:3] F,8 | 
[V:1] A6B2 | 
[V:2] A2G2F2ED | 
[V:3] z4C4- | 
[V:1] c3BG2A2- | 
[V:2] C4G2F2- | 
[V:3] C4B,2C2 | 
[V:1] A2GFE4 | 
[V:2] F2D2A4 | 
[V:3] A,2D4C2 | 
[V:1] D3EFGA2- | 
[V:2] D2F4ED | 
[V:3] D3CA,3B, | 
[V:1] A2G2E2F2- | 
[V:2] C4z2c2- | 
[V:3] C3B,G,2A,2- | 
[V:1] F2E4D2 | 
[V:2] c2B4A2 | 
[V:3] A,2G,2F,4 | 
[V:1] E8 ||  
[V:2] B8 ||  
[V:3] E,8 ||  
[V:1] [M:3/1]z12 | 
[V:2] [M:3/1]d8c4 | 
[V:3] [M:3/1]D,8E,4 | 
[V:1] D8E4 | 
[V:2] A4B6AB | 
[V:3] F,4G,6F,G, | 
[V:1] F4G6FG | 
[V:2] c4d6e2 | 
[V:3] A,4_B,6A,G, | 
[V:1] A2_B3AA4G2 | 
[V:2] f2d2c2e4d2 | 
[V:3] F,2G,2A,2C2_B,4 | 
[V:1] A8z4 | 
[V:2] e4z2e2d2f2 | 
[V:3] A,4C4D4 | 
[V:1] c4d4c2A2 | 
[V:2] e2a4g2a2f2 | 
[V:3] C2A,2_B,4A,4 | 
[V:1] B2c3BA4^G2 | 
[V:2] g2e3dc2B4 | 
[V:3] z12 | 
[V:1] A4c4c4 | 
[V:2] A4z2e4f2 | 
[V:3] A,12 | 
[V:1] G4A4G2E2 | 
[V:2] e2c2e4d2B2 | 
[V:3] C4C4G,4 | 
[V:1] F4E2E4D2 | 
[V:2] c4B2B4A2 | 
[V:3] A,4G,2E,2F,4 | 
[V:1] E2C3DEFG2c2 | 
[V:2] B4c4d2c2 | 
[V:3] E,4A,4B,2A,2 | 
[V:1] d2B3AA4^G2 | 
[V:2] B2G4A2E4 | 
[V:3] G,2D4C2B,4 | 
[V:1] A4G4F2G2 | 
[V:2] z2e4c2d2B2 | 
[V:3] A,4z4z4 | 
[V:1] A3Bc2d2B4 | 
[V:2] A2d2e2f2g2d2- | 
[V:3] z4z4G,4 | 
[V:1] A2GFE2c3BA2- | 
[V:2] d2B2c2A4D2 | 
[V:3] F,2G,2A,3B,C2D2 | 
[V:1] A2^G2A4z4 | 
[V:2] E4z2e3fg2- | 
[V:3] B,4A,4C2B,2 | 
[V:1] z12 | 
[V:2] gfedc2e4d2 | 
[V:3] G,2A,4G,2F,4 | 
[V:1] z4A4B4 | 
[V:2] e4f4d4 | 
[V:3] E,4z4z4 | 
[V:1] c2BcG2F2E3D | 
[V:2] c4d4A4 | 
[V:3] A,4B,4C3B, | 
[V:1] D4z4F4 | 
[V:2] B2d4^c2d4 | 
[V:3] G,2F,2E,4D,4 | 
[V:1] G2A3GA2B2c2 | 
[V:2] B2A2d6c2- | 
[V:3] E,2F,2D,2F,2G,2A,2- | 
[V:1] A3GFEE4D2 | 
[V:2] c2d2c2B4A2 | 
[V:3] A,2D,2A,2G,2F,4 | 
[V:1] E12 |]  
[V:2] B12 |]  
[V:3] E,12 |]  



